X: 23599
T: Lillibullero
R: jig
M: 6/8
K: Gmajor
GAG B2 B|ABA c3|BdG c2 B|AGF G2 D|
GAG B2 B|ABA c3|BdG c2 B|AGF G3||
g2 f g2 d|de=f e2 d|def gde|dcB A2 d|
edc Bcd|edc Bcd|egG c2 B|AGF G3||

